dist/img/svg/icon-percent.svg

<svg width="20" height="20" viewBox="0 0 20 20" fill="none" xmlns="http://www.w3.org/2000/svg">
<path d="M4.77726 11.1058C6.97186 11.1058 8.57561 9.60167 8.57561 7.05292C8.57561 4.52507 6.97186 3 4.77726 3C2.60375 3 1 4.52507 1 7.05292C1 9.60167 2.60375 11.1058 4.77726 11.1058ZM3.42673 17.812H6.46542L16.5522 3.18802H13.5135L3.42673 17.812ZM4.77726 9.12117C4.10199 9.12117 3.53224 8.53621 3.53224 7.05292C3.53224 5.56964 4.10199 4.98468 4.77726 4.98468C5.49472 4.98468 6.02227 5.56964 6.02227 7.05292C6.02227 8.53621 5.49472 9.12117 4.77726 9.12117ZM15.2016 18C17.3962 18 19 16.4958 19 13.9471C19 11.4192 17.3962 9.89415 15.2016 9.89415C13.007 9.89415 11.4244 11.4192 11.4244 13.9471C11.4244 16.4958 13.007 18 15.2016 18ZM15.2016 16.0153C14.5053 16.0153 13.9566 15.4304 13.9566 13.9471C13.9566 12.4638 14.5053 11.8788 15.2016 11.8788C15.898 11.8788 16.4467 12.4638 16.4467 13.9471C16.4467 15.4304 15.898 16.0153 15.2016 16.0153Z" fill="#FFA300"/>
</svg>

<svg width="20" height="20" fill="none" xmlns="http://www.w3.org/2000/svg"><path d="M4.777 11.106c2.195 0 3.799-1.504 3.799-4.053C8.576 4.525 6.972 3 4.777 3 2.604 3 1 4.525 1 7.053c0 2.549 1.604 4.053 3.777 4.053zm-1.35 6.706h3.038L16.552 3.188h-3.038L3.427 17.812zm1.35-8.69c-.675 0-1.245-.586-1.245-2.07 0-1.482.57-2.067 1.245-2.067.718 0 1.245.585 1.245 2.068S5.495 9.12 4.777 9.12zM15.202 18C17.396 18 19 16.496 19 13.947c0-2.528-1.604-4.053-3.798-4.053-2.195 0-3.778 1.525-3.778 4.053 0 2.549 1.583 4.053 3.778 4.053zm0-1.985c-.697 0-1.245-.585-1.245-2.068s.548-2.068 1.245-2.068c.696 0 1.245.585 1.245 2.068s-.549 2.068-1.245 2.068z" fill="#FFA300"/></svg>
